StripePaymentsUI/StripePaymentsUI/Resources/StripePaymentsUI.xcassets/CardsNoPadding/stp_card_unpadded_diners_club.imageset/stp_card_unpadded_diners_club.svg

<svg fill="none" height="16" viewBox="0 0 24 16" width="24" xmlns="http://www.w3.org/2000/svg"><path d="m22.2099 15.9999h-20.42198c-.46978.004-.92169-.1844-1.256572-.5231-.336538-.3404-.52743184-.8045-.53133951-1.2877l-.00000849-12.37609c.00391616-.48534.19481-.949396.531348-1.289794.334882-.338723.786782-.52713345 1.258712-.52314517l20.42204-.00000906c.4698-.00397922.9217.18443123 1.2565.52315423.3366.340398.5275.804454.5314 1.287694v12.38369c-.0061.5039-.2093.9579-.5339 1.2849-.323.3253-.7663.5246-1.2562.5204z" fill="#fff"/><path d="m22.2121 15.7499h-.0022-20.42198-.00212c-.40105.0034-.788418-.1573-1.076671-.4489-.289822-.2931-.455483-.6942-.459121-1.113-.000002-.0003-.000005-.0006-.000008-.0009v-12.37304c.003647-.42105.16941-.822035.459129-1.115078.288137-.29144.675461-.452329 1.078811-.44892v.000009h.00212 20.42204l.0021-.000018c.401-.003397.7884.157371 1.0767.448929.2897.293109.4554.694078.4591 1.112818v.00113 12.38007c-.0057.4369-.1818.8288-.4613 1.1103-.2783.2803-.6578.4502-1.0766.4466z" stroke="#000" stroke-opacity=".2" stroke-width=".5"/><path d="m10.0621 2.016v-.016h4v.016c3.1354.22944 5.5621 2.84018 5.5621 5.984 0 3.1438-2.4267 5.7546-5.5621 5.984v.016h-4v-.016c-3.13542-.2294-5.5621-2.8402-5.5621-5.984 0-3.14382 2.42668-5.75456 5.5621-5.984z" fill="#0165ac"/><path d="m11.6622 11.392c1.4353-.5103 2.394-1.86871 2.394-3.39201s-.9587-2.88171-2.394-3.392zm-2.39999-6.78401c-1.43529.51029-2.39404 1.8687-2.39404 3.392s.95875 2.88171 2.39404 3.39201zm1.19999 8.59201c-2.87187 0-5.19999-2.3281-5.19999-5.20001 0-2.87188 2.32812-5.2 5.19999-5.2 2.8719 0 5.2 2.32812 5.2 5.2 0 2.87191-2.3281 5.20001-5.2 5.20001z" fill="#fff"/></svg>

<svg width="24" height="16" viewBox="0 0 24 16" fill="none" xmlns="http://www.w3.org/2000/svg">
<path d="M22.2099 15.9999L1.78792 15.9999C1.31814 16.0039 0.86623 15.8155 0.531348 15.4768C0.19481 15.1364 0.00391616 14.6723 8.49175e-06 14.1891L0 1.81301C0.00391616 1.32767 0.19481 0.863614 0.531348 0.523216C0.86623 0.184493 1.31813 -0.00391745 1.79006 7.08333e-05L22.2121 6.17735e-05C22.6819 -0.00391745 23.1338 0.184493 23.4686 0.523216C23.8052 0.863614 23.9961 1.32767 24 1.81091L24 14.1946C23.9939 14.6985 23.7907 15.1525 23.4661 15.4795C23.1431 15.8048 22.6998 16.0041 22.2099 15.9999Z" fill="white"/>
<path d="M22.2121 15.7499H22.2099L1.78792 15.7499L1.7858 15.7499C1.38475 15.7533 0.997382 15.5926 0.709129 15.301C0.419307 15.0079 0.253646 14.6068 0.250008 14.188C0.250006 14.1877 0.250003 14.1874 0.25 14.1871L0.25 1.81406C0.253647 1.39301 0.41941 0.992025 0.709129 0.698982C0.997266 0.407542 1.38459 0.246653 1.78794 0.250062V0.250071H1.79006L22.2121 0.250071L22.2142 0.250053C22.6152 0.246656 23.0026 0.407424 23.2909 0.698982C23.5806 0.992091 23.7463 1.39306 23.75 1.8118C23.75 1.81218 23.75 1.81255 23.75 1.81293L23.75 14.193C23.7443 14.6299 23.5682 15.0218 23.2887 15.3033C23.0104 15.5836 22.6309 15.7535 22.2121 15.7499Z" stroke="black" stroke-opacity="0.2" stroke-width="0.5"/>
<path d="M10.0621 2.016V2H14.0621V2.016C17.1975 2.24544 19.6242 4.85618 19.6242 8C19.6242 11.1438 17.1975 13.7546 14.0621 13.984V14H10.0621V13.984C6.92668 13.7546 4.5 11.1438 4.5 8C4.5 4.85618 6.92668 2.24544 10.0621 2.016Z" fill="#0165AC"/>
<path d="M11.6622 11.392C13.0975 10.8817 14.0562 9.52329 14.0562 7.99999C14.0562 6.47669 13.0975 5.11828 11.6622 4.60799V11.392ZM9.26221 4.60799C7.82692 5.11828 6.86817 6.47669 6.86817 7.99999C6.86817 9.52329 7.82692 10.8817 9.26221 11.392V4.60799ZM10.4622 13.2C7.59033 13.2 5.26221 10.8719 5.26221 7.99999C5.26221 5.12811 7.59033 2.79999 10.4622 2.79999C13.3341 2.79999 15.6622 5.12811 15.6622 7.99999C15.6622 10.8719 13.3341 13.2 10.4622 13.2Z" fill="white"/>
</svg>
